X: 38
M:6/8
L:1/8
K:D
|:d|cBA cec|BcB B2 d|cBA cec|ABA A2 d|
cBA cde|fdB Bcd|cBA BAF|ABA A2:||

